templates/event-template/img/images.svg

<?xml version="1.0" encoding="utf-8"?>
<!-- Generated by IcoMoon.io -->
<!DOCTYPE svg PUBLIC "-//W3C//DTD SVG 1.1//EN" "http://www.w3.org/Graphics/SVG/1.1/DTD/svg11.dtd">
<svg version="1.1" xmlns="http://www.w3.org/2000/svg" xmlns:xlink="http://www.w3.org/1999/xlink" width="16" height="16" viewBox="0 0 16 16">
<path fill="#CCCCCC" d="M13.7 4.936l-1.637-4.508c-0.121-0.333-0.476-0.51-0.791-0.394l-10.878 3.97c-0.315 0.115-0.474 0.478-0.353 0.81l1.725 4.753v-2.546c0-1.15 0.918-2.086 2.048-2.086h2.874l3.428-2.406 1.983 2.406h1.601zM15.39 6.4h-11.577c-0.336 0-0.61 0.267-0.61 0.622v7.536c0.001 0.355 0.274 0.642 0.61 0.642h11.577c0.336 0 0.61-0.287 0.61-0.642v-7.536c0-0.354-0.274-0.622-0.61-0.622zM14.4 13.6h-9.6v-1.6l1.587-3.214 2.214 2.749 2.078-2.13 2.67-0.964 1.050 2.759v2.4z"></path>
</svg>

<svg xmlns="http://www.w3.org/2000/svg" width="16" height="16"><path fill="#CCC" d="M13.7 4.936L12.063.428c-.121-.333-.476-.51-.791-.394L.394 4.004c-.315.115-.474.478-.353.81l1.725 4.753V7.021c0-1.15.918-2.086 2.048-2.086h2.874l3.428-2.406 1.983 2.406H13.7zM15.39 6.4H3.813a.61.61 0 0 0-.61.622v7.536c.001.355.274.642.61.642H15.39c.336 0 .61-.287.61-.642V7.022a.61.61 0 0 0-.61-.622zm-.99 7.2H4.8V12l1.587-3.214 2.214 2.749 2.078-2.13 2.67-.964 1.05 2.759v2.4z"/></svg>
